X:1
T:Title
%%score { 1 | 2 }
L:1/8
M:4/4
K:Eb
V:1 treble nm="Grand Piano"
V:2 bass 
V:1
 z4 z2[Q:1/4=100] E>E | A2 A>A c2 e2 | [Ge]4 [B,GB]2 E>E | [EGB]2 [EGB]>[EGB] [EAc]2 [EB_d]2 | %4
[M:3/4] [EAc]6 |[M:1/4] E>E |[M:4/4] A2 A>A c2 e2 | [Ge]4 [GB]2 G>G | A2 A>A G2 [DF]2 | E6 z2 | %10
 e4 c4 | [FB][FA][_DF][FA] E4 | A4 [GB]4 | ccBA [GB]2 [Ge]2 | e4 c4 | B[FA][_DF][FA] E2 EE | %16
 AAA[GB] [Ac] [Ae]3 |[M:3/4] [Ac]2 [GB]2 [CEA]2 |] %18
V:2
 z4 z2 E,>E, | [A,CE]2 [A,CE]>[A,CE][K:treble] [A,EA]2 [A,CA]2 | [E,B,]4 E,2 E,>E, | %3
 E,2 E,>E, E,2 G,2 |[M:3/4] A,6 |[M:1/4] E,>E, | %6
[M:4/4][K:treble] [A,CE]2 [A,CE]>[A,CE] [A,EA]2 [A,CA]2 | [E,B,]4 [E,B,]2 [E,B,E]>[E,B,E] | %8
 [A,CF]2 [F,CF]>[K:bass][F,CF] [B,E]2 [B,,A,]2 | [E,G,]6 z2 | [A,CA]4 [A,EA]4 | %11
 [_D,_D][D,D][D,A,][D,D] [A,C]4 | [F,CF]4 [E,E]4 | [A,EA][A,EA][B,DF][B,DF][K:bass] [E,E]2 [E,D]2 | %14
 [A,CA]4 [A,EA]4 | [_DF][K:bass][_D,D][D,A,][D,D] [A,C]2 [A,C][A,C] | %16
 [A,CE][CE][F,CF][E,E] [A,E] [A,C]3 |[M:3/4] [E,E]2 [E,_D]2 [A,,A,]2 |] %18

